Papirus/22x22/apps/soundkonverter.svg

<svg xmlns="http://www.w3.org/2000/svg" width="22" height="22" version="1">
 <rect width="20" height="20" x="-21.5" y="-21" rx="6" ry="6" transform="matrix(0,-1,-1,0,0,0)" style="opacity:0.2"/>
 <rect style="fill:#81d547" width="20" height="20" x="-21" y="-21" rx="6" ry="6" transform="matrix(0,-1,-1,0,0,0)"/>
 <path style="opacity:0.2" d="M 10.969,5.4997 C 10.365,5.4936 9.7654,5.5779 9.1836,5.7282 6.471,6.4135 4.4509,8.8537 4.4922,11.5 H 3 l 2.2871,3 2.1875,-3 H 6.043 C 6.0378,10.3918 6.47859,9.3644 7.2618,8.5371 8.7338,6.87 11.4929,6.4787 13.4493,7.59374 14.09919,8.39502 15.5425,7.5151 14.7852,6.69335 13.708,5.90307 12.3288,5.50275 10.9688,5.49995 Z m 5.7441,3 -2.1875,3 h 1.4316 c 0.0052,1.1082 -0.43559,2.1356 -1.2188,2.9629 -1.472,1.6671 -4.2311,2.0584 -6.1875,0.94336 -0.64989,-0.80128 -2.0932,0.07864 -1.3359,0.90039 1.0772,0.79028 2.4564,1.1906 3.8164,1.1934 0.60419,0.0061 1.2033,-0.07816 1.7852,-0.22852 2.7126,-0.68526 4.7327,-3.1255 4.6914,-5.7715 h 1.4922 l -2.2871,-3 z"/>
 <path style="fill:#ffffff" d="M 10.969,5 C 10.365,4.9939 9.7654,5.0782 9.1836,5.2285 6.471,5.9138 4.4509,8.3541 4.4922,11 H 3 l 2.2871,3 2.1875,-3 H 6.043 C 6.0378,9.8918 6.4786,8.8644 7.2617,8.0371 8.7337,6.3701 11.493,5.9787 13.449,7.0938 14.099,7.895 15.542,7.0151 14.785,6.1934 13.708,5.4031 12.329,5.0028 10.969,5 Z m 5.7441,3 -2.1875,3 h 1.4316 c 0.0052,1.1082 -0.43559,2.1356 -1.2188,2.9629 -1.472,1.6671 -4.2311,2.0584 -6.1875,0.94336 -0.64989,-0.80128 -2.0932,0.07864 -1.3359,0.90039 1.0772,0.79028 2.4564,1.1906 3.8164,1.1934 0.60419,0.0061 1.2033,-0.07816 1.7852,-0.22852 2.7126,-0.68526 4.7327,-3.1255 4.6914,-5.7715 h 1.4922 l -2.288,-3 z"/>
 <circle style="fill:#8561c5" cx="16" cy="16" r="6"/>
 <path style="fill:#ffffff" d="m 14,12 v 4.0938 c -0.158,-0.057 -0.322,-0.094 -0.5,-0.094 -0.8284,0 -1.5,0.6716 -1.5,1.5 0,0.8284 0.6716,1.5 1.5,1.5 0.8284,0 1.5,-0.6716 1.5,-1.5 v -3.5 h 3 v 2.0938 c -0.158,-0.057 -0.322,-0.094 -0.5,-0.094 -0.8284,0 -1.5,0.6716 -1.5,1.5 0,0.8284 0.6716,1.5 1.5,1.5 0.8284,0 1.5,-0.6716 1.5,-1.5 v -5.5 h -0.5 z"/>
 <path style="opacity:0.2;fill:#ffffff" d="M 7,1 C 3.676,1 1,3.676 1,7 v 0.5 c 0,-3.324 2.676,-6 6,-6 h 8 c 3.324,0 6,2.676 6,6 V 7 C 21,3.676 18.324,1 15,1 Z"/>
</svg>

<svg xmlns="http://www.w3.org/2000/svg" width="22" height="22" version="1">
 <rect fill="#81d547" width="20" height="20" x="-21" y="-21" rx="1" ry="1" transform="matrix(0,-1,-1,0,0,0)"/>
 <path fill="#fff" opacity=".2" d="m1 2.5v-0.5c0-0.554 0.446-1 1-1h18c0.554 0 1 0.446 1 1v0.5c0-0.554-0.446-1-1-1h-18c-0.554 0-1 0.446-1 1z"/>
 <path opacity=".2" d="m1 20v0.5c0 0.554 0.446 1 1 1h18c0.554 0 1-0.446 1-1v-0.5c0 0.554-0.446 1-1 1h-18c-0.554 0-1-0.446-1-1z"/>
 <path opacity=".2" d="m10.969 5.4997c-0.604-0.0061-1.2036 0.0782-1.7854 0.2285-2.7126 0.6853-4.7327 3.1255-4.6914 5.7718h-1.4922l2.2871 3 2.1875-3h-1.4316c-0.0052-1.1082 0.43559-2.1356 1.2188-2.9629 1.472-1.6671 4.2311-2.0584 6.1875-0.94336 0.64989 0.80128 2.0932-0.07864 1.3359-0.90039-1.0772-0.79028-2.4564-1.1906-3.8164-1.1934zm5.7441 3-2.1875 3h1.4316c0.0052 1.1082-0.43559 2.1356-1.2188 2.9629-1.472 1.6671-4.2311 2.0584-6.1875 0.94336-0.64989-0.80128-2.0932 0.07864-1.3359 0.90039 1.0772 0.79028 2.4564 1.1906 3.8164 1.1934 0.60419 0.0061 1.2033-0.07816 1.7852-0.22852 2.7126-0.68526 4.7327-3.1255 4.6914-5.7715h1.4922l-2.2871-3z"/>
 <path fill="#fff" d="m10.969 5c-0.604-0.0061-1.2036 0.0782-1.7854 0.2285-2.7126 0.6853-4.7327 3.1256-4.6914 5.7715h-1.4922l2.2871 3 2.1875-3h-1.4316c-0.0052-1.1082 0.4356-2.1356 1.2187-2.9629 1.472-1.667 4.2313-2.0584 6.1873-0.9433 0.65 0.8012 2.093-0.0787 1.336-0.9004-1.077-0.7903-2.456-1.1906-3.816-1.1934zm5.7441 3-2.1875 3h1.4316c0.0052 1.1082-0.43559 2.1356-1.2188 2.9629-1.472 1.6671-4.2311 2.0584-6.1875 0.94336-0.64989-0.80128-2.0932 0.07864-1.3359 0.90039 1.0772 0.79028 2.4564 1.1906 3.8164 1.1934 0.60419 0.0061 1.2033-0.07816 1.7852-0.22852 2.7126-0.68526 4.7327-3.1255 4.6914-5.7715h1.4922l-2.288-3z"/>
 <circle fill="#8561c5" cx="16" cy="16" r="6"/>
 <path fill="#fff" d="m14 12v4.0938c-0.158-0.057-0.322-0.094-0.5-0.094-0.8284 0-1.5 0.6716-1.5 1.5s0.6716 1.5 1.5 1.5 1.5-0.6716 1.5-1.5v-3.5h3v2.0938c-0.158-0.057-0.322-0.094-0.5-0.094-0.8284 0-1.5 0.6716-1.5 1.5s0.6716 1.5 1.5 1.5 1.5-0.6716 1.5-1.5v-5.5h-0.5z"/>
</svg>
